X:2608
T:Capt.Ross' Reel. HSJJ.006
M:4/4
L:1/8
Q:180
S:HSJ Jackson,Wyresdale,Lancs.1823
R:Reel
O:England
A:Lancashire
H:1823
Z:vmp.Chris Partington.
K:G
D3B A>GEG|G/G/G BG dGBG|D3B (~A>GE)e|de/f/ gB G/G/GG2:|!
|:(de/f/) gB ~A>GEe|(de/f/ g)d edgd|e>gdB ~A>GEe|de/f/ gB G/G/GG2:|]


